X: 136
T: No_92_Song_for_Head_Singer_Stake_of_Drum.krn
N: Derived from No_92_Song_for_Head_Singer_Stake_of_Drum.krn
%%abc-version 2.0
%%abcx-abcm2ps-target-version 5.9.1 (29 Sep 2008)
%%abc-creator hum2abc beta
%%abcx-conversion-date 2019/03/15 08:35:45
%%humdrum-veritas 3909010490
%%humdrum-veritas-data 1696678992
%%linebreak <none>
%%barnumbers 0
L: 1/8
M: 2/4
K: G clef=bass
[K:clef=bass][M:2/4]E/E3/ E3/E/ | 
E2B,2 | 
B,/B,3/ B,3/B,/ | 
B,2E,2 | 
E/E3/ E3/E/ | 
E2B,2 | 
B,/B,3/ B,3/E/ | 
B,2A,2 | 
B,/G,3/ G,3/G,/ | 
G,2G, z | 
B,/E,G,/ G,B,/G,/ ||  
[M:3/4]E,3/E,/E,2E,3/E,/ ||  
[M:2/4]E,4 | 
E, z E,E, ||  
[M:3/4]B,3/B,/ B,A,G,2 ||  
[M:2/4]B,2G,2 | 
E,2E, z ||  
[M:3/4]G,/E,3/ B,A,G,2 ||  
[M:2/4]E,2E,3/E,/ | 
E,4 | 
E, zz2 |]  



